X:1
T:Sonata KV 448 (KV 375a) - 2nd movement
T:W.A. Mozart (1756 - 1791)
T:for two pianos
%%score { ( 1 3 ) | ( 2 4 ) } { ( 5 7 8 ) | 6 }
L:1/8
Q:1/4=55
M:3/4
K:G
V:1 treble nm="I" snm="I"
V:3 treble 
V:2 bass 
V:4 bass 
V:5 bass nm="II" snm="II"
V:7 bass 
V:8 bass 
V:6 bass 
V:1
!p!"^Andante" d2{^cde} (d3 =c) | (c/B/e/d/) d2 z2 | (e3/2f/8e/8d/8e/8 f2) (ag) | %3
 (fTe/d/4e/4) d2 z d | (^c/d/e/d/ A)(.d.d.d) | (^c/d/e/d/ B)(.d.d.d) | (e3/2{fede}f/4g/4) A2 (ed) | %7
 (c3/2d/4c/4 B)[dd'][dd'][dd'] | %8
 ([^c^c']/[dd']/[ee']/[dd']/) [Aa]/([dd']/[cc']/[dd']/ [cc']/[dd']/[cc']/[dd']/) | %9
 ([^c^c']/[dd']/[ee']/[dd']/) [Bb]/([dd']/[cc']/[dd']/ [cc']/[dd']/[cc']/[dd']/) | %10
 ([^d^d']/[ee']/[=c=c']/[Aa]/) [Gg]2{/[Bb]} [Aa]>[Gg] | [Gg]2 z2 z d | %12
 d'3 (c'/4b/4a/4g/4 !wedge!c')!wedge!c' | (^ab) z2 z d | %14
{/^c'} d'3 (=c'/4b/4a/4g/4 !wedge!c'/)!wedge!c'/!wedge!c'/!wedge!c'/ | (^ab) z2 z d | %16
 d'3 (b/d'/4b/4 !wedge!g)!wedge!g | (Tfa) z2 z B | b3 (a/g/ f/e/g/e/) | (d3/2e/4d/4 ^c2) z2 | %20
 z (Adf) (g^c) | d2 z2 z2 | z/4 D/4E/4F/4 G/4A/4B/4^c/4 d/4e/4f/4g/4 a/4f/4a/4f/4 (gc) | d2 z2 z2 | %24
 z!p! (([fa][eg][df] [Be][^df])) | [eg]!p! (([Bg][Af][Ge])) (([F=d][^ce])) | %26
 (Tf/e/4f/4)(g/e/) d z e z | (([eg]/[df]/[gb]/[fa]/)) [fa]2 z2 | z6 | z (fad') (^c'/>a/)(g/>e/) | %30
 d2 z2 z2 | z3/4 (D/<F/A/4) (d/>f/a/>d'/) (^c'/>a/)(g/>e/) | d2 z!p! ([Adf][GBe][AB^df]) | %33
 [GBeg]2 z!p! ([GBe] [FA=d][GA^ce]) | [FAdf] z z2 z2 | d'4 (T=c'3/2b/4c'/4) | %36
 (!wedge!=c'/b/) b2!<(! b (b/a/^g/a/)!<)! |!f! (^g2 =g2 f2) | %38
!p! (^d/e/)!wedge!g/!wedge!b/ ([gb]/[fa]/)!wedge![eg]/!wedge![=df]/ ([Af]/[Ge]/)!wedge![Fd]/!wedge![E^c]/ | %39
 [Fd]2 z2 z2 | z6 |!f! z6 | z6 | %43
!f! A/B/4^c/4 d/4e/4f/4g/4{b} a/g/4f/4 g/4a/4b/4^c'/4 d'/4c'/4b/4a/4 g/4f/4e/4d/4 | %44
 !trill(!Te6({de)} | d2 z2 z2 | z (.b/.a/ .^g/.a/.f/.=g/) (a/g/) z/ ^c/ |1 %47
 (e2 d){/^c} d{/c}d{/c}d :|2 (e2 d) z z2 || z6 | z6 | z6 | z6 | z6 | z6 | z6 | z6 | %57
!p! (([fa]2 [eg]))((.[df].[eg].[fa])) | (([f^a]>[gb])) [gb]2 z2 | %59
 (([eg]2 [df]))((.[^ce].[df].[eg])) | (([e^g]>[fa])) [fa]2 z2 | %61
 (=g/>a/f/>g/ =e/>f/d/>e/) ^c z3/4 A/4 | %62
 (a/>b/g/>a/ f/>g/e/>f/) .d/4.e/4.f/4.g/4 .a/4.b/4.^c'/4.d'/4 | (d'b/>g/) (f>d){f} ed/^c/ | %64
 d2 z (d d')!wedge!d' | (d'3/2b/4^g/4 e)(e{/=g} =fe) | (ea) z{ba^g} (a/>b/ c')c' | (c' b2) (^fba) | %68
 Tg/>a/b z b{a}g{f}e | (d/c/)a z({ba^g)} (a/>b/ c')c' | (c'3/2a/4f/4 d3) d |!p! d2{^cde} (d3 =c) | %72
 (c/B/e/d/) d2 z2 | (e3/2f/8e/8d/8e/8 f2) (ag) | (fTe/d/4e/4) d2 z d | (^c/d/e/d/ A)(.d .d.d) | %76
 (^c/d/e/d/ B)(.d .d.d) | (e3/2{fede}f/4g/4) A2 (ed) | (c3/2d/4c/4 B)[dd'] [dd'][dd'] | %79
 ([^c^c']/[dd']/[ee']/[dd']/) [Aa]/([dd']/[cc']/[dd']/ [cc']/[dd']/[cc']/[dd']/) | %80
 ([^c^c']/[dd']/[ee']/[dd']/) [Bb]/([dd']/[cc']/[dd']/ [cc']/[dd']/[cc']/[dd']/) | %81
 ([^d^d']/[ee']/[=c=c']/[Aa]/) [Gg]2{/[Bb]} ([Aa]>[Gg]) | [Gg]2 z2 z d | %83
 d'3 (c'/4b/4a/4g/4 !wedge!c')!wedge!c' | (^ab) z2 z d | %85
{/^c'} d'3 (=c'/4b/4a/4g/4 !wedge!c'/)!wedge!c'/!wedge!c'/!wedge!c'/ | (^ab) z2 z d | %87
 d'3 (b/d'/4b/4 !wedge!=f)!wedge!f | (^de) z2 z e | e'3 (d'/c'/) (b/a/c'/a/) | (g3/2a/4g/4 f2) z2 | %91
 z6 | z (Bdg) (f/d/=c/A/) | G2 z4 | %94
 z/4 G/4A/4B/4 c/4d/4e/4f/4 g/4a/4b/4c'/4 d'/4b/4d'/4b/4 (c'/a/g/f/) | %95
 g2 z!p! ([DGB][CEA][DE^GB]) | [CEAc]2 z!p! ([CEA][B,D=G][CDFA]) | [B,DGB]2 z4 | %98
 z2 (d'/^c'/)!wedge!d'/!wedge!d'/ (d'/c'/)!wedge!d'/!wedge!d'/ | %99
{/e'} (d'/^c'/)!wedge!d'/!wedge!d'/ (d'/c'/)!wedge!d'/!wedge!d'/ (d'/c'/)!wedge!d'/!wedge!d'/ | %100
{/e'} (d'/^c'/)!wedge!d'/!wedge!d'/ (d'/c'/)!wedge!d'/!wedge!d'/ (d'/c'/)!wedge!d'/!wedge!d'/ | %101
{/e'} (d'/^c'/)!wedge!d'/!wedge!d'/ (d'/c'/)!wedge!d'/!wedge!d'/ (d'/c'/)!wedge!d'/!wedge!d'/ | %102
{/e'} (d'/^c'/)!wedge!d'/!wedge!d'/ (d'/c'/)!wedge!d'/!wedge!d'/ (d'/c'/)!wedge!d'/!wedge!d'/ | %103
 d'!p! ([bd'][ac'][dgb] [cea][de^gb]) | [ceac']!p! ([ec'][db][cea] [Bd=g][cdfa]) | %105
 (Tb/a/4b/4)!wedge!c'/!wedge!a/ g z =f z | %106
 [E^GBe-]2 e/f/4^g/4a/4b/4c'/4b/4{d'} c'/b/4a/4{a} =g/f/4e/4 | [D-FAd-]2 [D=GBd] z z2 | z6 | %109
!f![I:staff +1] ^C,/4E,/4G,/4_B,/4[I:staff -1] ^C/4E/4G/4_B/4 ^c/4e/4g/4_b/4 b/4g/4e/4c/4 B/4G/4E/4C/4[I:staff +1] B,/4G,/4E,/4C,/4 | %110
[I:staff -1] z6 | z6 |!p! z (.[DGB].[DGB].[DGB].[EGB].[EGB]) | %113
 a/4^g/4a/4c'/4 e/4^d/4e/4a/4 c/4B/4c/4e/4 A/4^G/4A/4c/4 F/4^E/4F/4A/4 =D/4^C/4D/4F/4 | %114
 G(g- g/=f/)e/d/ (d/c/)(c- | c/B/)(g- g/4a/4=f/4g/4 e/4f/4d/4e/4) (d/c/)(c- | %116
 c/B/)!wedge!B z z/ d'/ (d'/c'/)!wedge!b/!wedge!a/ | (a2 g) z z2 |] %118
V:2
 G,,2 B,,2 D,2 | G,2 [G,,G,]4 | C2 C,2 C2 | G,2 G,,G,B,G, | [D,F,A,C]6 | [D,G,B,]6 | C2 D2 D,2 | %7
 [G,,G,]3 G,B,G, |[K:treble] [A,CDF]6 | [B,DG]6 |[K:bass] C2 D2 D,2 | G,2 z2 z2 | %12
[K:treble] G/d/B/d/ G/d/B/d/ F/d/A/d/ | G2 z2[K:bass] [D,,D,]2 | %14
[K:treble] G/d/B/d/ G/d/B/d/ F/d/A/d/ | G2 z2[K:bass] [D,,D,]2 | %16
[K:treble] G/d/B/d/ G/d/B/d/ E/^c/A/c/ | d2 z2[K:bass] [B,,,B,,]2 | %18
 G,/E/B,/E/ G,/E/B,/E/ G,/E/B,/E/ | %19
 (A,/^G,/)!wedge!A,/!wedge!A,/ (A,/G,/)!wedge!A,/!wedge!A,/ (A,/G,/)!wedge!A,/!wedge!A,/ | %20
 (A,/^G,/)!wedge!A,/!wedge!A,/ (A,/G,/)!wedge!A,/!wedge!A,/ (A,/G,/)!wedge!A,/!wedge!A,/ | %21
 (A,/^G,/)!wedge!A,/!wedge!A,/ (A,/G,/)!wedge!A,/!wedge!A,/ (A,/G,/)!wedge!A,/!wedge!A,/ | %22
 (A,/^G,/)!wedge!A,/!wedge!A,/ (A,/G,/)!wedge!A,/!wedge!A,/ (A,/G,/)!wedge!A,/!wedge!A,/ | %23
 (A,/^G,/)!wedge!A,/!wedge!A,/ (A,/G,/)!wedge!A,/!wedge!A,/ (A,/G,/)!wedge!A,/!wedge!A,/ | %24
 A,2 z!p! (F,B,B,,) | E,2 z!p! (E,A,A,,) | D,G, A, z A,, z | D,2 z2 z2 | z2 z2 (([A,,E,A,]2 | %29
 [D,F,A,]2)) z2 (([A,,E,A,]2 | [D,F,A,]2)) z2 ([A,,E,A,-]2 | [D,F,A,]2) z2 ([A,,E,A,-]2 | %32
 [D,F,A,]2) z!p! (F,B,B,,) | E,2 z (E, A,A,,) | D, z z2 z2 | %35
[K:treble] (D/F/A/F/ D/F/A/F/ D/F/A/F/) | D/G/B/G/ D/G/B/G/ D/=F/A/F/ | %37
 D/E/B/E/ ^C/E/^c/E/ D/^F/d/F/ |[K:bass] [B,G] z [A,F] z [G,F] z | [D,F,A,D]2 z2 z2 | z6 | %41
 [E,,E,]2 [^A,,,^A,,]2 [B,,,B,,]2 | [G,,,G,,] z [G,,,G,,] z [G,,,G,,] z | %43
 A,/D/F/D/ A,/D/F/D/ A,/D/F/D/ | A,/E/G/E/ A,/E/G/E/ A,/E/G/E/ | [DF]2 z2 z2 | %46
 z2 z2 z[K:treble] [EG] |1 (([^CGA]2 [DFA])) z z2 :|2 (([^CGA]2 [DFA])) z z2 || z6 | z6 | z6 | z6 | %53
 z6 | z6 | z6 | z6 | (([FA]2 [EG]))((.[DF].[EG].[FA])) | (([F^A]>[GB])) [GB]2 z2 | %59
 (([EG]2 [DF]))((.[^CE].[DF].[EG])) | (([E^G]>[FA])) [FA]2 z2 | ^CD =EF =G z | DE FG A z | %63
 [DE]2 [DF]2 [EG]2 | !wedge!=F/(F/A/G/ F/G/F/E/ D/E/D/=C/) | B,/C/D/C/ B,/C/D/C/ B,/C/D/B,/ | %66
 C/D/E/D/ C/A/c/B/ A/B/A/=G/ | ^F/G/A/G/ F/G/A/G/ F/^D/E/F/ | %68
 G/F/G/A/ (B/G/)!wedge!B/!wedge!B/ (B/G/)!wedge!B/!wedge!B/ | %69
 z/ C/C/D/ (E/C/)!wedge!E/!wedge!E/ (E/C/)!wedge!E/!wedge!E/ | %70
 z/ F/F/G/ (A/F/)!wedge!A/!wedge!A/ (c/A/)!wedge!c/!wedge!c/ |[K:bass] G,,2 B,,2 D,2 | %72
 G,2 [G,,G,]4 | C2 C,2 C2 | G,2 G,,G, B,G, | [D,F,A,C]6 | [D,G,B,]6 | C2 D2 D,2 | %78
 [G,,G,]3 G, B,G, | [A,CDF]6 | [B,DG]6 | C2 D2 D,2 | G,2 z2 z2 | %83
[K:treble] G/d/B/d/ G/d/B/d/ F/d/A/d/ | G2 z2[K:bass] [D,,D,]2 | %85
[K:treble] G/d/B/d/ G/d/B/d/ F/d/A/d/ | G2 z2[K:bass] [D,,D,]2 | %87
[K:treble] G/d/B/d/ D/B/G/B/ B,/G/D/G/ | C2 z2 z2 |[K:bass] C,/A,/E,/A,/ C,/A,/E,/A,/ C,/A,/E,/C/ | %90
 (D/^C/)!wedge!D/!wedge!D/ (D/C/)!wedge!D/!wedge!D/ (D/C/)!wedge!D/!wedge!D/ | %91
 (D/^C/)!wedge!D/!wedge!D/ (D/C/)!wedge!D/!wedge!D/ (D/C/)!wedge!D/!wedge!D/ | %92
 (D/^C/)!wedge!D/!wedge!D/ (D/C/)!wedge!D/!wedge!D/ (D/C/)!wedge!D/!wedge!D/ | %93
 (D/^C/)!wedge!D/!wedge!D/ (D/C/)!wedge!D/!wedge!D/ (D/C/)!wedge!D/!wedge!D/ | %94
 (D/^C/)!wedge!D/!wedge!D/ (D/C/)!wedge!D/!wedge!D/ (D/C/)!wedge!D/!wedge!D/ | %95
 D2[K:bass] z!p! (B,,E,E,,) | A,,2 z!p! (A,,D,D,,) | G,,2 z4 | z6 | %99
[K:treble] z (([B,D][DG][GB][Fc][CF])) | [B,G]2 z2 z2 | %101
 z3/4 (G,/<B,/D/4 G/>B/d/>B/) ((([Fc][CF]))) | [B,G]2 z4 | z2[K:bass] z!p! (B,EE,) | %104
 A,2 z!p! (A,DD,) | G,C D z D, z | (([D,E,^G,B,]2 [C,E,A,C])) z z2 | %107
 (([C,D,F,A,]2 [B,,D,=G,B,])) z z2 | z6 | z6 | D,2 z4 | z6 | [G,,G,]4 [E,,E,]2 | %113
 [C,,C,]4 [D,,D,]2 | [G,,G,]2 G,4 | z2 G,4 | z2 G,4 | ([G,-C]2 [G,B,]) z z2 |] %118
V:3
 x6 | x6 | x6 | x6 | x6 | x6 | x6 | x6 | x6 | x6 | x6 | x6 | x6 | x6 | x6 | x6 | x6 | x6 | x6 | %19
 x6 | x6 | x6 | x6 | x6 | x6 | x6 | d(B/G/) F z ^c z | x6 | x6 | x d f2 (e^c) | x6 | x4 (e^c) | %32
 x6 | x4 z2 | x6 | x6 | x6 | x6 | x6 | x6 | x6 | x6 | x6 | x6 | x6 | x6 | x6 |1 x6 :|2 x6 || x6 | %50
 x6 | x6 | x6 | x6 | x6 | x6 | x6 | x6 | x6 | x6 | x6 | x6 | x6 | x6 | x6 | x6 | x6 | x6 | x6 | %69
 x6 | x6 | x6 | x6 | x6 | x6 | x6 | x6 | x6 | x6 | x6 | x6 | x6 | x6 | x6 | x6 | x6 | x6 | x6 | %88
 x6 | x6 | x6 | x6 | x6 | x6 | x6 | x6 | x6 | x6 | x6 | x6 | x6 | x6 | x6 | x6 | x6 | %105
 de/c/ B x A x | x6 | x6 | x6 | x6 | x6 | x6 | x6 | x6 | x2 =F2- F/(E/^F/D/) | %115
 G2 =F2- F/(E/^F/D/) | G2 =F2 E^F | (([DF]2 [DG])) x x2 |] %118
V:4
 x6 | x6 | x6 | x6 | x6 | x6 | x6 | x6 |[K:treble] x6 | x6 |[K:bass] x6 | x6 |[K:treble] x6 | %13
 x4[K:bass] x2 |[K:treble] x6 | x4[K:bass] x2 |[K:treble] x6 | x4[K:bass] x2 | x6 | x6 | x6 | x6 | %22
 x6 | x6 | x6 | x6 | x6 | x6 | x6 | x6 | x6 | x6 | x6 | x6 | x6 |[K:treble] x6 | x6 | x6 | %38
[K:bass] x6 | x6 | x6 | x6 | x6 | x6 | x6 | x6 | x5[K:treble] x |1 x6 :|2 x6 || x6 | x6 | x6 | x6 | %53
 x6 | x6 | x6 | x6 | x6 | x6 | x6 | x6 | A,4- A, x | A,4- A, x | B,2 A,4 | x6 | x6 | x6 | x6 | x6 | %69
 x6 | x6 |[K:bass] x6 | x6 | x6 | x6 | x6 | x6 | x6 | x6 | x6 | x6 | x6 | x6 |[K:treble] x6 | %84
 x4[K:bass] x2 |[K:treble] x6 | x4[K:bass] x2 |[K:treble] x6 | x6 |[K:bass] x6 | x6 | x6 | x6 | %93
 x6 | x6 | x2[K:bass] x4 | x6 | x6 | x6 |[K:treble] x6 | x6 | x6 | x6 | x2[K:bass] x4 | x6 | x6 | %106
 x6 | x6 | x6 | x6 | x6 | x6 | x6 | x6 | x6 | x6 | x6 | x6 |] %118
V:5
!p! z/ G,/[B,D]/G,/ z/ G,/[B,D]/G,/ z/ F,/[A,D]/F,/ | %1
 z/ G,/[B,D]/G,/ z/ G,/[B,G]/G,/ [CF]/A,/[D=F]/B,/ | %2
 z/ G,/[CE]/G,/ z/ G,/[D^F]/G,/ z/ G,/[EG]/G,/ | %3
 [DF]/G,/[CE]/G,/ [B,D]/G,/[B,D]/G,/ z/ G,/[B,D]/G,/ | %4
 z/ F,/[A,CD]/F,/ [A,CD]/F,/[A,CD]/F,/ [A,CD]/F,/[A,CD]/F,/ | %5
 z/ G,/[B,D]/G,/ [B,D]/G,/[B,D]/G,/ [B,D]/G,/[B,D]/G,/ | %6
 z/ G,/[CE]/G,/ z/ G,/[A,D]/G,/ z/ F,/[A,D]/F,/ | %7
 z/ F,/[A,D]/F,/ [B,D]/G,/[B,D]/G,/[K:treble] [DG]/G,/[GB]/D/ | %8
 z/ D/[FAc]/D/ [FAc]/D/[FAc]/D/ [FAc]/D/[FAc]/D/ | z/ D/[GB]/D/ [GB]/D/[GB]/D/ [GB]/D/[GB]/D/ | %10
 z/ E/[GAc]/E/ z/ D/[GB]/D/ z/ C/[DFA]/C/ | %11
 [B,G]/([GB]/[FA]/[EG]/ [DF]/[EG]/[DF]/[CE]/ [B,D]/[CE]/[B,D]/[A,C]/) | B,2 z2 z d | %13
 d'3 (c'/4b/4a/4g/4 !wedge!c')!wedge!c' | (^ab) z2 z d | %15
 d'3 (c'/4b/4a/4g/4 !wedge!c'/)!wedge!c'/!wedge!c'/!wedge!c'/ | (^ab) z2 z =A | %17
 a3 (f/a/4f/4 !wedge!d)!wedge!d | (Teg) z B (A/G/B/G/) | (F3/2G/4F/4 E2) z2 | z6 | %21
 z (fad') (^c'/a/g/e/) | d2 z2 z2 | %23
 z/4 D/4E/4F/4 G/4A/4B/4^c/4 d/4e/4f/4g/4 a/4b/4^c'/4d'/4 (c'/a/g/e/) | %24
 d2 z!p! ([Adf][GBe][AB^df]) | [GBeg]2 z!p! ([GBe][FA=d][GA^ce]) | [FAdf] z z2 z2 | %27
 z2 (a/^g/)!wedge!a/!wedge!a/ (a/g/)!wedge!a/!wedge!a/ | %28
{/b} (a/^g/)!wedge!a/!wedge!a/{/b} (a/g/)!wedge!a/!wedge!a/{/b} (a/g/)!wedge!a/!wedge!a/ | %29
{/b} (a/^g/)!wedge!a/!wedge!a/{/b} (a/g/)!wedge!a/!wedge!a/{/b} (a/g/)!wedge!a/!wedge!a/ | %30
{/b} (a/^g/)!wedge!a/!wedge!a/{/b} (a/g/)!wedge!a/!wedge!a/{/b} (a/g/)!wedge!a/!wedge!a/ | %31
{/b} (a/^g/)!wedge!a/!wedge!a/{/b} (a/g/)!wedge!a/!wedge!a/{/b} (a/g/)!wedge!a/!wedge!a/ | %32
 a!p! (([fa][e=g][df])) (([Be][^df])) | [eg]!p! (([Bg][Af][Ge])) [F=d][^ce] | %34
 Tf/e/4f/4g/e/ d z ^c z | [Dd]2 z2 z2 | z6 |!f! z6 |!p! z6 |{/d} d'4 (T=c'3/2b/4c'/4) | %40
 (!wedge!=c'/b/) b2!<(! b (b/a/^g/a/)!<)! |!f! (^g2 =g2 f2) | %42
 (^d/e/)e- e/4f/4e/4d/4 e/4f/4g/4a/4 b/4a/4g/4f/4 e/4=d/4^c/4B/4 | A2 z2 z2 | !trill(!T^c6({Bc)} | %45
 d(.b/.a/ .^g/.a/.f/.=g/) (a/g/) z/ ^c/ | (e/d/) (.B/.A/ .^G/.A/.F/.=G/) (A/G/) z/ ^C/ |1 %47
 (([G,A,-E]2 [A,D])) z z2 :|2 (([G,A,-E]2 [A,D])) z z2 ||!p! (([FA]2 [EG]))((.[DF].[EG].[FA])) | %50
 (([F^A]>[GB])) [GB]2 z2 | (([EG]2 [DF]))((.[^CE].[DF].[EG])) | (([E^G]>[FA])) [FA]2 z2 | %53
 (g3 f){f} ed/^c/ | (a3 g){g} fe/d/ |{a} gf/e/{b} ag/f/{f} ed/^c/ |{e} d^c/d/ A2 z2 | %57
 z d2 (d^c=c) | z2 z/ (([GB]/[F^A]/[GB]/ [=Ac]/[GB]/[F^A]/[GB]/)) | %59
 z [=A,=A]2 [A,A-] (A/^G/=G/E/) | D2 z/ (([FA]/[^E^G]/[FA]/ [=GB]/[FA]/[E^G]/[FA]/)) | %61
 (!trill(!Ta6 | !trill)!a6)({^ga)} | .B/4.^c/4.d/4.e/4 .f/4.=g/4.a/4.b/4 (a>f){a} gf/e/ | %64
 !wedge!d/(D/=F/E/ D/E/D/=C/ B,/C/B,/A,/) | ^G,/A,/B,/A,/ G,/A,/B,/A,/ G,/A,/B,/G,/ | %66
 A,/B,/C/B,/ A,/^F/A/=G/ F/G/F/E/ | ^D/E/F/E/ D/E/F/E/ D/B,/^C/D/ | %68
 E/^D/E/F/ (G/E/)!wedge!G/!wedge!G/ (G/E/)!wedge!G/!wedge!G/ | %69
 z/ A,/A,/B,/ (C/A,/)!wedge!C/!wedge!C/ (C/A,/)!wedge!C/!wedge!C/ | %70
 z/ D/D/E/ (F/D/)!wedge!F/!wedge!F/ (A/F/)!wedge!A/!wedge!A/ | %71
[K:bass]!p! z/ G,/[B,D]/G,/ z/ G,/[B,D]/G,/ z/ F,/[A,D]/F,/ | %72
 z/ G,/[B,D]/G,/ z/ G,/[B,G]/G,/ [CF]/A,/[D=F]/B,/ | %73
 z/ G,/[CE]/G,/ z/ G,/[D^F]/G,/ z/ G,/[EG]/G,/ | %74
 [DF]/G,/[CE]/G,/ [B,D]/G,/[B,D]/G,/ z/ G,/[B,D]/G,/ | %75
 z/ F,/[A,CD]/F,/ [A,CD]/F,/[A,CD]/F,/ [A,CD]/F,/[A,CD]/F,/ | %76
 z/ G,/[B,D]/G,/ [B,D]/G,/[B,D]/G,/ [B,D]/G,/[B,D]/G,/ | %77
 z/ G,/[CE]/G,/ z/ G,/[A,D]/G,/ z/ F,/[A,D]/F,/ | %78
 z/ F,/[A,D]/F,/ [B,D]/G,/[B,D]/G,/[K:treble] [DG]/G,/[GB]/D/ | %79
 z/ D/[FAc]/D/ [FAc]/D/[FAc]/D/ [FAc]/D/[FAc]/D/ | z/ D/[GB]/D/ [GB]/D/[GB]/D/ [GB]/D/[GB]/D/ | %81
 z/ E/[GAc]/E/ z/ D/[GB]/D/ z/ C/[DFA]/C/ | %82
 [B,G]/([GB]/[FA]/[EG]/ [DF]/[EG]/[DF]/[CE]/ [B,D]/[CE]/[B,D]/[A,C]/) | B,2 z2 z d | %84
 d'3 (c'/4b/4a/4g/4 !wedge!c')!wedge!c' | (^ab) z2 z d | %86
 d'3 (c'/4b/4a/4g/4 !wedge!c'/)!wedge!c'/!wedge!c'/!wedge!c'/ | (^ab) z2 z G | %88
 g3 (e/g/4e/4 c)(c/e/4c/4) | (BA) z e (d/c/e/c/) | (B3/2c/4B/4 A2) z2 | z (DGB) (cF) | G2 z4 | %93
 z/4 G,/4A,/4B,/4 C/4D/4E/4F/4 G/4A/4B/4c/4 d/4B/4d/4B/4 (cF) | G2 z4 | %95
 z!p! (([Bd][Ac][GB])) (([EA][^GB])) | [Ac]!p! (([Ec][DB][CA])) (([B,=G][FA])) | %97
 (([GB]/[Bg]/))(([ce]/[Ac]/)) [GB] z [FA] z | (([Ac]/[GB]/[ce]/[Bd]/)) [Bd]2 z2 | z6 | %100
 z (Bdg) f/>d/c/>A/ | G2 z2 z2 | z3/4 (G,/<B,/D/4 G/>B/d/>g/) (f/>d/)(c/>A/) | %103
 G!p! ([Bd][Ac][DGB] [CEA][DE^GB]) | [CEAc]!p! ([Ec][DB][CEA] [B,D=G][CDFA]) | %105
 (TB/A/4B/4)!wedge!c/!wedge!A/ G z =F z | [E-^GBe-]2 [EAce] z z2 | %107
 [DFAd-]2 d/e/4f/4g/4a/4b/4a/4{c'} b/a/4g/4{g} f/e/4d/4 | %108
 (([Bd]/[Ac]/[ce]/[Ac]/)) (([Ac]/[GB]/[Bd]/[GB]/)) (([Bd]/[Ac]/[GB]/[FA]/)) | %109
!f! [EG_B]3!p! [EGB][EGB][EGB] | z (.[DG=B].[DGB].[DGB].[DGB].[DGB]) | %111
 z (.[EGA].[EGA].[EGA].[DFA].[DFA]) | %112
 b/4^a/4b/4d'/4 g/4f/4g/4b/4 d/4^c/4d/4g/4 B/4^A/4B/4d/4 G/4F/4G/4B/4 E/4^D/4E/4G/4 | %113
 z (.[EGA].[EGA].[EGA].[CDFA].[CDFA]) | [B,DG]2 G2- G/(G/A/F/) | D z G2- G/(G/A/F/) | %116
 !wedge!D/!wedge!G/(g- g/4a/4=f/4g/4e/4f/4d/4e/4) (d/c/)!wedge!B/!wedge!A/ | %117
 (([CDFA]2 [B,DG])) z z2 |] %118
V:6
 G,,,2 B,,,2 D,,2 | G,,2 G,,,4 | C,2 C,,2 C,2 | G,,2 G,,,G,,B,,G,, | [D,,D,]6 | [G,,,G,,]6 | %6
 C,2 D,2 D,,2 | [G,,,G,,]3 [G,,,G,,][B,,,B,,][G,,,G,,] | [D,,D,]6 | [G,,G,]6 | C,2 D,2 D,,2 | %11
 [G,,,G,,]2 [D,,D,-]2 D,3/2E,/4F,/4 | G,2 z2 [D,,D,]2 |[K:treble] G/d/B/d/ G/d/B/d/ F/d/A/d/ | %14
 G2 z2[K:bass] [D,,D,]2 |[K:treble] G/d/B/d/ G/d/B/d/ F/d/A/d/ | G2 z2[K:bass] [A,,A,]2 | %17
[K:treble] D/d/A/d/ D/A/F/A/ B,/F/D/F/ |[K:bass] G,2 G,2 G,,2 | %19
 (A,,/^G,,/)!wedge!A,,/!wedge!A,,/ (A,,/G,,/)!wedge!A,,/!wedge!A,,/ A,, z | z2 z2 (([A,,E,G,]2 | %21
 [D,F,]2)) z2 ((([A,,^C,E,G,]2 | [D,F,]2))) z2 (([A,,E,G,]2 | [D,F,]2)) z2 ([A,,^C,E,G,]2 | %24
 [D,F,]2) z!p! (F,B,B,,) | E,2 z!p! (E,A,A,,) | D, z z2 z2 | z6 | z [F,A,] [A,D][DF] [^CG][G,C] | %29
 [F,D]2 z2 z2 | z3/4 (D,/<F,/A,/4 D/>F/A/>F/) ([^CG][G,C]) | [F,D]2 z2 z2 | z2 z!p! (F,B,B,,) | %33
 E,2 z!p! E,A,A,, | D,G, A, z A,, z | D,2 z2 z2 | z6 | [E,,E,]2 [^A,,,^A,,]2 [B,,,B,,]2 | %38
 [G,,G,] z [=A,,=A,] z [A,,,A,,] z |[K:treble] (D/F/A/F/ D/F/A/F/ D/F/A/F/) | %40
 D/G/B/G/ D/G/B/G/ D/=F/B/F/ | D/E/B/E/ ^C/E/^c/E/ D/F/d/F/ | %42
[K:bass] G,/B,/E/B,/ G,/B,/E/B,/ G,/B,/E/B,/ | [A,,,A,,]2 z2 z2 | %44
 [A,,,A,,] z [A,,,A,,] z [A,,,A,,] z | [D,,D,] z z2 z [A,EG] | [DF]2 z2 z [A,,E,G,] |1 %47
 [D,,D,]2- [D,,D,] z z2 :|2 [D,,D,]2- [D,,D,] z z2 || z (D,,D,)!p!(.D,.D,.D,) | %50
 z (G,,,G,,)!p!(.G,,.G,,.G,,) | z (A,,,A,,)!p!(.A,,.A,,.A,,) | z (D,,D,)!p!(.D,.D,.D,) | %53
 z !wedge![E,,^C,]([E,^C][F,D]) [G,E]2 | z !wedge![F,,D,]([F,D][G,E]) [A,F]2 | %55
 [B,DEG]2 [A,DF]2 [A,EG]2 | [DF]2 z (DF,A,) | D,(D,, D,)!p!(.D,.D,.D,) | %58
 z (G,,, G,,)!p!(.G,,.G,,.G,,) | z (A,,, A,,)!p!(.A,,.A,,.A,,) | z (D,, D,)!p!(.D,.D,.D,) | %61
 ([E,,E,][F,,F,][G,,G,][F,,F,] [E,,E,]) z | ([F,,F,][G,,G,][A,,A,][G,,G,] [F,,F,]) z | %63
 G,G,A,A, A,,A,, | D, z D, z D, z | E, z E, z E, z | A,, z A,, z A,, z | B,, z B,, z B,, z | %68
 E, z [E,,E,] z [E,,E,] z | [A,,,A,,] z [A,,,A,,] z [A,,,A,,] z | [D,,D,] z [D,,D,] z [D,,D,] z | %71
 G,,,2 B,,,2 D,,2 | G,,2 G,,,4 | C,2 C,,2 C,2 | G,,2 G,,,G,, B,,G,, | [D,,D,]6 | [G,,,G,,]6 | %77
 C,2 D,2 D,,2 | [G,,,G,,]3 [G,,,G,,] [B,,,B,,][G,,,G,,] | [D,,D,]6 | [G,,G,]6 | C,2 D,2 D,,2 | %82
 [G,,,G,,]2 [D,,D,-]2 D,3/2E,/4F,/4 | G,2 z2 [D,,D,]2 |[K:treble] G/d/B/d/ G/d/B/d/ F/d/A/d/ | %85
 G2 z2[K:bass] [D,,D,]2 |[K:treble] G/d/B/d/ G/d/B/d/ F/d/A/d/ | G2 z2[K:bass] [G,,G,]2 | %88
[K:treble] C/G/E/G/ C/G/E/G/ C/^G/E/G/ | [CE]2[K:bass] C,2 C,2 | %90
 (D,/^C,/)!wedge!D,/!wedge!D,/ (D,/C,/)!wedge!D,/!wedge!D,/ D, z | z2 z2 (([D,,A,,C,]2 | %92
 [G,,B,,]2)) z2 (([D,,F,,A,,C,]2 | [G,,B,,]2)) z2 (([D,,A,,C,]2 | [G,,B,,]2)) z2 (([D,,F,,A,,C,]2 | %95
 [G,,B,,]2)) z!p! (B,,E,E,,) | A,,2 z!p! (A,,D,D,,) | G,,C, D, z D,, z | G,,2 z4 | %99
 z2 z2 (([D,A,D]2 | [G,B,D]2)) z2 (([D,A,D]2 | [G,B,D]2)) z2 (([D,,A,,D,]2 | %102
 [G,,B,,D,]2)) z2 (([D,,A,,D,]2 | [G,,B,,D,]2)) z!p! (B,,E,E,,) | A,,2 z!p! (A,,D,D,,) | %105
 G,,C, D, z D, z | (([D,E,^G,B,]2 [C,E,A,C])) z z2 | (([C,D,F,A,]2 [B,,D,=G,B,])) z z2 | %108
 C,C, D,D,D,D, | [^C,,^C,]4 [C,,C,]2 | D,4 E,2 | =C,4 D,2 | [G,,G,]4 [E,,E,]2 | [C,,C,]4 [D,,D,]2 | %114
 [G,,,G,,]2 [G,,G,]2!p! [G,,G,]2 | [G,,,G,,]2 [G,,G,]2!p! [G,,G,]2 | %116
 [G,,,G,,]2 [G,,G,]2!p! [G,,G,]2 | [G,,,G,,]2- [G,,,G,,] z z2 |] %118
V:7
 x6 | x6 | x6 | x6 | x6 | x6 | x6 | x4[K:treble] x2 | x6 | x6 | x6 | x6 | x6 | x6 | x6 | x6 | x6 | %17
 x6 | x6 | x6 | x6 | x6 | x6 | x6 | x6 | x6 | x6 | x6 | x6 | x6 | x6 | x6 | x6 | x6 | %34
 dB/G/ F x E x | x6 | x6 | x6 | x6 | x6 | x6 | x6 | x6 | x6 | x6 | x6 | x6 |1 x6 :|2 x6 || x6 | %50
 x6 | x6 | x6 | A6 | A6 | d2 d2 A2 | A2 x4 | x D2 D2 D | x6 | x6 | x6 | x6 | x6 | x6 | x6 | x6 | %66
 x6 | x6 | x6 | x6 | x6 |[K:bass] x6 | x6 | x6 | x6 | x6 | x6 | x6 | x4[K:treble] x2 | x6 | x6 | %81
 x6 | x6 | x6 | x6 | x6 | x6 | x6 | x6 | x6 | x6 | x6 | x6 | x6 | x6 | x6 | x6 | x6 | x6 | x6 | %100
 x G B2 (AF) | x6 | x4 (AF) | x6 | x6 | DE/C/ B, x A, x | x6 | x6 | x6 | x6 | x6 | x6 | x6 | x6 | %114
 x6 | x6 | x6 | x6 |] %118
V:8
 x6 | x6 | x6 | x6 | x6 | x6 | x6 | x4[K:treble] x2 | x6 | x6 | x6 | x6 | x6 | x6 | x6 | x6 | x6 | %17
 x6 | x6 | x6 | x6 | x6 | x6 | x6 | x6 | x6 | x6 | x6 | x6 | x6 | x6 | x6 | x6 | x6 | x6 | x6 | %36
 x6 | x6 | x6 | x6 | x6 | x6 | x6 | x6 | x6 | x6 | x6 |1 G,2 F, z z2 :|2 G,2 F, z z2 || x6 | x6 | %51
 x6 | x6 | x6 | x6 | x6 | x6 | x6 | x6 | x6 | x6 | x6 | x6 | x6 | x6 | x6 | x6 | x6 | x6 | x6 | %70
 x6 |[K:bass] x6 | x6 | x6 | x6 | x6 | x6 | x6 | x4[K:treble] x2 | x6 | x6 | x6 | x6 | x6 | x6 | %85
 x6 | x6 | x6 | x6 | x6 | x6 | x6 | x6 | x6 | x6 | x6 | x6 | x6 | x6 | x6 | x6 | x6 | x6 | x6 | %104
 x6 | x6 | x6 | x6 | x6 | x6 | x6 | x6 | x6 | x6 | x6 | x6 | x6 | x6 |] %118

